X:1
T:Nearer to Jesus
T:Nearer to Jesus
T:Lelia Naylor Morris, 1898
T:Tamra Newton Lee, 2015
T:Public Domain Courtesy of the Cyber Hymnal™
T:Public Domain Courtesy of the Cyber Hymnal™
C:Lelia Naylor Morris, 1898
Z:Public Domain
Z:Courtesy of the Cyber Hymnal™
%%score ( 1 2 ) ( 3 4 )
L:1/8
M:4/4
K:Db
V:1 treble 
V:2 treble 
V:3 bass 
V:4 bass 
V:1
 [DF]4 [DF]2 [DF]2 | [EA]4 [EA]4 | D4 [DG]2 [DG]2 | [DF]6 z2 | [DB]4 [GB]2 [GB]2 | %5
w: 1.~Near- er, still|near- er,|close to my|Lord;|I will seek|
w: 2.~Each day I’ll|fol- low|His blest com-|mands,|Each day I’ll|
w: 3.~Help of the|help- less,|my bless- èd|Lord!|Car- ing for|
w: 4.~Near- er still|near- er,|to end of|time.|Speak- ing His|
 [FA]4 [DF]2 [DF]2 | [DF]4 [B,E]2 [DE]2 | [CE]6 z2 | [DF]4 [DF]2 [DF]2 | [EA]4 [FA]4 | %10
w: Je- sus in|prayer and the|Word.|As I draw|near to|
w: praise Him and|cling to His|hand.|Walk- ing with|Je- sus|
w: each one, in|love watch- ing|o’er;|Ho- ly com-|pas- sion|
w: gos- pel sal-|va- tion di-|vine.|Show- ing His|way and|
 [GB]4 [Gc]2 [Fd]2 | [Ec]6 z2 | [Ad]4 [Ac]2 [GB]2 | [FA]4 [DF]2 [DA]2 | [CA]4 [CA]3 [CG] | %15
w: my pre- cious|Lord:|His Word has|prom- ised His|Spir- it out-|
w: I’ll sure- ly|find|All my de-|sires i- n|Je- sus are|
w: guard- ing our|way:|Je- sus my|Shep- herd, help|me not to|
w: do- ing His|will:|Some day in|Hea- ven our|joy be ful-|
 [DF]6 z2 | [GB]4 [Gc]2 [Gd]2 | [Fd]4 D2 [DE]2 | [DF]4 [CF]3 [CE] | D6 z2 |] %20
w: poured!|His Word has|prom- ised His|Spir- it out-|poured!|
w: mine!|All my de-|sires i- n|Je- sus are|mine!|
w: stray,|Je- sus my|Shep- herd, help|me not to|stray.|
w: filled!|Some day in|Hea- ven our|joy be ful-|filled!|
V:2
 x8 | x8 | D4 x4 | x8 | x8 | x8 | x8 | x8 | x8 | x8 | x8 | x8 | x8 | x8 | x8 | x8 | x8 | x4 D2 x2 | %18
 x8 | D6 x2 |] %20
V:3
 [D,A,]4 [D,A,]2 [D,A,]2 | [C,A,]4 [C,E,]4 | [B,,F,]4 [G,,B,]2 B,2 | [D,F,]6 z2 | %4
 (G,2 B,2) [G,D]2 [G,D]2 | [D,D]4 [D,A,]2 [D,A,]2 | [B,,B,]4 [E,=G,]2 [E,G,]2 | %7
 (z2 G,,2 F,,2 E,,2) | [D,A,]4 [D,A,]2 [D,A,]2 | [C,A,]4 [D,D]4 | [G,D]4 [E,A,]2 [D,A,]2 | A,6 z2 | %12
 (A,2 D2) [G,D]2 [G,D]2 | [D,D]4 [D,A,]2 [D,F,]2 | [A,,E,]4 [A,,E,]3 [A,,A,] | [D,A,]6 z2 | %16
 [G,,D]4 [G,,C]2 [G,,B,]2 | [A,,A,]4 [__B,,=G,]2 [B,,G,]2 | [A,,A,]4 [A,,A,]3 [A,,G,] | %19
 [D,F,]6 z2 |] %20
V:4
 x8 | x8 | x6 (G,,B,,) | x8 | G,4 x4 | x8 | x8 | A,6 x2 | x8 | x8 | x8 | A,6 x2 | F,4 x4 | x8 | %14
 x8 | x8 | x8 | x8 | x8 | x8 |] %20

